X: 39840
T: Thirteen Arches, The
R: reel
M: 4/4
K: Cmajor
CGEC G,B,DB,|CEGc Bcde|fd ~d2 BcdB|cBGE FDGF|
EC ~C2 _B,DGF|EGcA Bcde|~f2 de fbag|^fgBd cBGF|
EG,CD A,/B,/C DF|EGcA Bcde|fd ~d2 BcdB|cBGE FDGF|
EC ~C2 _B,DGF|EGcA Bcde|~f2 de fbag|^fgBd cABc||
dGBd efdf|ecgc Gcdc|BGGA Bcdc|BGGF DdcA|
BG ~G2 DGdG|B,DG,c Bcde|~f3 d Bgdc|BGed c2Bc|
dGBd efdf|ecgc Gcdc|BGGA Bcdc|BGGF DEFD|
E/F/G EG F3D|E/F/G cA Bcde|~f3d Bgdc|BGed c2 z2||

